src/lib/packages/icons/src/assets/line/download-alt.svg

<svg width="24" height="24" viewBox="0 0 24 24" fill="none" xmlns="http://www.w3.org/2000/svg">
<path d="M11.072 17.182C11.472 17.56 11.9859 17.749 12.4999 17.749C13.0139 17.749 13.5269 17.56 13.9279 17.182L20.2018 11.254C20.7228 10.762 20.8899 10.013 20.6249 9.34601C20.3589 8.67901 19.726 8.24902 19.008 8.24902H17.165V4C17.165 3.035 16.38 2.25 15.415 2.25H9.41498C8.44998 2.25 7.66498 3.035 7.66498 4V8.25H5.99188C5.27388 8.25 4.63994 8.68098 4.37494 9.34698C4.10994 10.014 4.27603 10.762 4.79803 11.254L11.072 17.182ZM5.76996 9.901C5.79696 9.832 5.85786 9.75 5.99286 9.75H8.41595C8.61495 9.75 8.80598 9.67103 8.94598 9.53003C9.08598 9.38903 9.16595 9.199 9.16595 9V4C9.16595 3.862 9.27795 3.75 9.41595 3.75H15.416C15.554 3.75 15.666 3.862 15.666 4V9C15.666 9.199 15.7449 9.39003 15.8859 9.53003C16.0269 9.67103 16.217 9.75 16.416 9.75H19.009C19.144 9.75 19.2039 9.832 19.2319 9.901C19.2589 9.97 19.272 10.071 19.174 10.164L12.8998 16.092C12.6748 16.303 12.328 16.303 12.103 16.092L5.82904 10.164C5.72904 10.071 5.74196 9.97 5.76996 9.901ZM20.2499 21C20.2499 21.414 19.9139 21.75 19.4999 21.75H5.49994C5.08594 21.75 4.74994 21.414 4.74994 21C4.74994 20.586 5.08594 20.25 5.49994 20.25H19.4999C19.9139 20.25 20.2499 20.586 20.2499 21Z" fill="currentColor"/>
</svg>

<svg xmlns="http://www.w3.org/2000/svg" width="24" height="24" fill="none"><path fill="currentColor" d="M11.072 17.182c.4.378.914.567 1.428.567.514 0 1.027-.189 1.428-.567l6.274-5.928a1.732 1.732 0 0 0 .423-1.908 1.73 1.73 0 0 0-1.617-1.097h-1.843V4c0-.965-.785-1.75-1.75-1.75h-6c-.965 0-1.75.785-1.75 1.75v4.25H5.992c-.718 0-1.352.431-1.617 1.097a1.729 1.729 0 0 0 .423 1.907l6.274 5.928ZM5.77 9.901a.224.224 0 0 1 .223-.151h2.423a.747.747 0 0 0 .75-.75V4a.25.25 0 0 1 .25-.25h6a.25.25 0 0 1 .25.25v5a.747.747 0 0 0 .75.75h2.593c.135 0 .195.082.223.151.027.069.04.17-.058.263L12.9 16.092a.58.58 0 0 1-.797 0l-6.274-5.928a.222.222 0 0 1-.059-.263ZM20.25 21a.75.75 0 0 1-.75.75h-14a.75.75 0 0 1 0-1.5h14a.75.75 0 0 1 .75.75Z"/></svg>
